X:1
T:Title
%%score { ( 1 3 ) | ( 2 4 ) }
L:1/8
M:4/2
K:A
V:1 treble nm="Grand Piano"
V:3 treble 
V:2 bass 
V:4 bass 
V:1
 z8 z4[Q:1/4=208] [Cc]4 | [DB]4 [EA]4 [EG]4 F4 | E12 E4 | z8 z4 B4 |[M:6/4] [Cc]12 |[M:2/4] [Ec]4 | %6
[M:8/4] [Dd]4 [Ec]4 [FB]4 [FA]4 | A4 G4 A4 F4 | z8 E8 | [CE]16 |] %10
V:2
 z8 z4 [A,,A,]4 | [B,,G,]4 [C,A,]4 [D,A,]4 [F,A,D]4 | [G,B,D]12 [A,C]4 | %3
 [D,A,D]4 [F,A,D]4 [E,A,B,]4 .[E,G,E]4 |[M:6/4] [A,,A,]12 |[M:2/4] [F,^A,]4 | %6
[M:8/4] [B,,B,]4 [C,^A,]4 [D,B,]4 [D,D]4 | [E,CE]4 [^E,B,D]4 [F,A,C]4 [D,A,D]4 | z8 C4 z4 | %9
 [A,,E,A,]16 |] %10
V:3
 x16 | x16 | x16 | F4 A4 B4 z2 D2 |[M:6/4] x12 |[M:2/4] x4 |[M:8/4] x16 | x16 | E8 z4 D4 | x16 |] %10
V:4
 x16 | x16 | x16 | x16 |[M:6/4] x12 |[M:2/4] x4 |[M:8/4] x16 | x16 | [E,A,B,]8 [E,G,]8 | x16 |] %10

